X: 402
T: I wish you wou'd marry me now
R: reel
M: C
L: 1/8
Z: 2012 John Chambers <jc:trillian.mit.edu>
B: J. Anderson "Budget of Strathspeys, Reels and Country Dances" (Early 1800s) p.40 #2
F: http://imslp.org/wiki/Anderson%27s_Budget_of_Strathspeys,_Reels_and_Country_Dances_(Various)
K: Am
|:\
EA-AB c2(ce) | dcBA GABG | AE E/E/E c2(ce) | dBgB A/A/AA2 :|
agea geae | gedg BGdB | agea geae | gdgB A/A/AA2 ||
agea geae | gedg BGdB | cAdB ecae | gegB A/A/AA2 |]

%%sep 2 1 500
%%sep 1 1 500

